X: 1
T: Dwyer's
M: 4/4
L: 1/8
R: reel
K: Ador
A2eA (3B^cd ec|dGBG AFGF|EA=cA (3B^cd gf|eaag a3g|
~e3d =cA~A2|Bgd=c BdcB|AE=cE dEcd|1 e=cBG EAAG:|2 e=cBG EA~A2||
|:a2ea =c'afa|g2dg bgdg|aged (3B^cd ed|(3=cBA BG EA~A2|
a3b =c'afa|~g3a agdg|aged (3B^cd ed|1 (3=cBA BG EA~A2:|2 (3=cBA BG EAAG||
